assets/Ab button blood type/Flat/ab_button_blood_type_flat.svg

<svg width="32" height="32" viewBox="0 0 32 32" fill="none" xmlns="http://www.w3.org/2000/svg">
<path d="M2 6C2 3.79086 3.79086 2 6 2H26C28.2091 2 30 3.79086 30 6V26C30 28.2091 28.2091 30 26 30H6C3.79086 30 2 28.2091 2 26V6Z" fill="#F92F60"/>
<path d="M9.94547 8.9219C10.5072 8.91881 11.0143 9.25769 11.2263 9.77783L15.8621 21.1501C16.1488 21.8533 15.8111 22.6557 15.1079 22.9424C14.4047 23.229 13.6023 22.8914 13.3156 22.1881L12.6476 20.5495C12.6284 20.5024 12.5827 20.4717 12.5319 20.4717H7.49838C7.44706 20.4717 7.40096 20.503 7.38211 20.5508L6.74105 22.1741C6.46213 22.8804 5.66344 23.2269 4.95713 22.948C4.25082 22.6691 3.90435 21.8704 4.18327 21.1641L8.67412 9.79184C8.88043 9.2694 9.38378 8.92498 9.94547 8.9219ZM8.56681 17.5508C8.53441 17.6328 8.59487 17.7217 8.68307 17.7217H11.3089C11.3977 17.7217 11.4582 17.6317 11.4247 17.5495L10.0909 14.2776C10.0483 14.1732 9.90027 14.174 9.85887 14.2789L8.56681 17.5508Z" fill="white"/>
<path d="M18.3533 9.07813C17.5951 9.07813 16.98 9.69183 16.9783 10.45L16.9531 21.5281C16.9523 21.8933 17.0968 22.2439 17.3548 22.5024C17.6127 22.761 17.9629 22.9062 18.3281 22.9062H23.3973C23.4311 22.9062 23.4647 22.905 23.4979 22.9026C25.7653 22.8733 27.6308 21.0498 27.6308 18.7592C27.6308 17.3914 26.9656 16.1902 25.9468 15.4381C25.8935 15.3987 25.8781 15.3253 25.9112 15.2678C26.2572 14.6662 26.4556 13.9689 26.4556 13.2219C26.4556 10.9127 24.5595 9.07813 22.2672 9.07813H18.3533ZM22.2466 17.3655L22.2672 17.3656L22.3031 17.3655H23.4423C24.2577 17.3655 24.8808 18.0102 24.8808 18.7592C24.8808 19.5083 24.2577 20.153 23.4423 20.153C23.4102 20.153 23.3784 20.1541 23.3468 20.1562H19.8315C19.7624 20.1562 19.7064 20.1001 19.7065 20.031L19.7123 17.4902C19.7125 17.4213 19.7684 17.3655 19.8373 17.3655H22.2466ZM22.2888 14.6155H19.8441C19.775 14.6155 19.7189 14.5593 19.7191 14.4902L19.7249 11.9528C19.725 11.8839 19.7809 11.8281 19.8499 11.8281H22.2672C23.0825 11.8281 23.7056 12.4728 23.7056 13.2219C23.7056 13.9643 23.0935 14.6042 22.2888 14.6155Z" fill="white"/>
</svg>

<svg xmlns="http://www.w3.org/2000/svg" width="32" height="32" fill="none"><path fill="#F92F60" d="M2 6a4 4 0 0 1 4-4h20a4 4 0 0 1 4 4v20a4 4 0 0 1-4 4H6a4 4 0 0 1-4-4V6Z"/><path fill="#fff" d="M9.945 8.922a1.375 1.375 0 0 1 1.281.856l4.636 11.372a1.375 1.375 0 1 1-2.546 1.038l-.668-1.639a.125.125 0 0 0-.116-.077H7.498a.125.125 0 0 0-.116.079l-.64 1.623a1.375 1.375 0 0 1-2.559-1.01L8.674 9.792c.206-.523.71-.867 1.271-.87ZM8.567 17.55a.125.125 0 0 0 .116.17h2.626c.089 0 .15-.09.116-.172l-1.334-3.271a.125.125 0 0 0-.232 0l-1.292 3.273ZM18.353 9.078c-.758 0-1.373.614-1.375 1.372l-.025 11.078a1.375 1.375 0 0 0 1.375 1.378h5.07c.033 0 .067-.001.1-.003 2.267-.03 4.133-1.853 4.133-4.144a4.115 4.115 0 0 0-1.684-3.32.13.13 0 0 1-.036-.171 4.087 4.087 0 0 0 .545-2.046c0-2.31-1.896-4.144-4.189-4.144h-3.914Zm3.894 8.288h1.196c.815 0 1.438.644 1.438 1.393 0 .75-.623 1.394-1.439 1.394-.032 0-.064.001-.095.003H19.83a.125.125 0 0 1-.125-.125l.006-2.54c0-.07.056-.125.125-.125h2.41Zm.042-2.75h-2.445a.125.125 0 0 1-.125-.126l.006-2.537c0-.07.056-.125.125-.125h2.417c.816 0 1.439.645 1.439 1.394 0 .742-.613 1.382-1.417 1.394Z"/></svg>
